X:235
T:Oblique Jig
C:Niall Vallely
R:jig
M:6/8
L:1/8
K:Dmaj
Bde f2d | edf edB | f2d edB | dee e2z |
Bde f2d | edf edB | f2d edB | ABB B2z ::
ABB dBB | e2f edB | ABB dBB | f2d edB |
ABB dBB | e2f edB | f2d edB | ABB B2z :|
